resources/haticons/SVG/exposure.svg

<!-- Generated by IcoMoon.io -->
<svg version="1.1" xmlns="http://www.w3.org/2000/svg" width="24" height="24" viewBox="0 0 24 24">
<title>exposure</title>
<path d="M14.484 15.984h-1.969v-1.5h1.969v-1.969h1.5v1.969h2.016v1.5h-2.016v2.016h-1.5v-2.016zM18.984 18.984v-13.969l-13.969 13.969h13.969zM6 6.984v1.5h5.016v-1.5h-5.016zM18.984 3q0.797 0 1.406 0.609t0.609 1.406v13.969q0 0.797-0.609 1.406t-1.406 0.609h-13.969q-0.797 0-1.406-0.609t-0.609-1.406v-13.969q0-0.797 0.609-1.406t1.406-0.609h13.969z"></path>
</svg>

<svg xmlns="http://www.w3.org/2000/svg" width="24" height="24"><path d="M14.484 15.984h-1.969v-1.5h1.969v-1.969h1.5v1.969H18v1.5h-2.016V18h-1.5v-2.016zm4.5 3V5.015L5.015 18.984h13.969zM6 6.984v1.5h5.016v-1.5H6zM18.984 3q.797 0 1.406.609t.609 1.406v13.969q0 .797-.609 1.406t-1.406.609H5.015q-.797 0-1.406-.609T3 18.984V5.015q0-.797.609-1.406T5.015 3h13.969z"/></svg>
